lib/brands/icons/ms-project.svg

<svg xmlns="http://www.w3.org/2000/svg" fill="none" aria-hidden="true" viewBox="0 0 48 48"><g id="ms-project-Icon"><g id="Group 1"><path id="Vector" fill="#185C37" d="M40.4522 39.707H19.9872C19.1274 39.707 18.4395 39.0191 18.4395 38.1592V29.2166L26.293 25.3185L36.0955 29.2166H40.4522C41.3121 29.2166 42 29.9045 42 30.7643V38.1592C42 39.0191 41.3121 39.707 40.4522 39.707V39.707Z"/><path id="Vector_2" fill="#33C481" d="M30.191 18.7834L21.0191 22.051L10.5859 18.7834V9.84077C10.5859 8.9809 11.2738 8.293 12.1337 8.293H28.7006C29.5605 8.293 30.2484 8.9809 30.2484 9.84077L30.191 18.7834Z"/><path id="Vector_3" fill="#21A366" d="M10.5859 18.7834H34.5477C35.4076 18.7834 36.0955 19.4713 36.0955 20.3312V29.2739H12.1337C11.2738 29.2739 10.5859 28.586 10.5859 27.7261V18.7834Z"/><path id="Vector_4" fill="black" d="M18.4394 35.1209H23.4267C24.1719 35.1209 24.8025 34.605 24.9171 33.8598V16.3757C24.9171 15.5158 24.2293 14.8279 23.4267 14.8279H10.5859V27.6687C10.5859 28.5285 11.2738 29.2164 12.1337 29.2164H18.4394V35.1209Z" opacity="0.1"/><path id="Vector_5" fill="black" d="M23.4267 34.4904C24.6305 34.4904 25.605 33.5159 25.605 32.3121V16.3758C25.605 15.172 24.6305 14.1974 23.4267 14.1974H10.5859V27.7261C10.5859 28.586 11.2738 29.2739 12.1337 29.2739H18.4394V34.4904H23.4267Z" opacity="0.2"/><path id="Vector_6" fill="black" d="M23.4267 33.8024C24.2866 33.8024 24.9745 33.1145 24.9745 32.312V16.3757C24.9745 15.5158 24.2866 14.8279 23.484 14.8279H10.5859V27.6687C10.5859 28.5285 11.2738 29.2164 12.1337 29.2164H18.4394V33.8024H23.4267Z" opacity="0.2"/><path id="Vector_7" fill="black" d="M22.7961 33.8024C23.656 33.8024 24.3439 33.1145 24.3439 32.312V16.3757C24.3439 15.5158 23.656 14.8279 22.8535 14.8279H10.5859V27.6687C10.5859 28.5285 11.2738 29.2164 12.1337 29.2164H18.4394V33.8024H22.7961Z" opacity="0.1"/><path id="Vector_8" fill="url(#paint0_linear_94_18825)" d="M7.54777 14.8279H22.7962C23.6561 14.8279 24.344 15.5158 24.344 16.3757V31.6241C24.344 32.484 23.6561 33.1719 22.7962 33.1719H7.54777C6.6879 33.1719 6 32.484 6 31.6241V16.3757C6 15.5158 6.6879 14.8279 7.54777 14.8279V14.8279Z"/><path id="Vector_9" fill="white" d="M15.459 18.8981C16.4336 18.8408 17.4081 19.1274 18.1533 19.7006C18.7839 20.3312 19.1278 21.1911 19.0705 22.051C19.0705 22.6815 18.8985 23.2548 18.6119 23.828C18.2679 24.344 17.8093 24.7452 17.2934 25.0319C16.6629 25.3185 15.975 25.4905 15.2871 25.4331H13.3953V29.0446H11.4463V18.8981H15.459ZM13.4527 23.8854H15.1151C15.631 23.9427 16.1469 23.7707 16.6055 23.4268C16.9495 23.0828 17.1214 22.6242 17.1214 22.1083C17.1214 20.9618 16.4909 20.4459 15.2297 20.4459H13.51L13.4527 23.8854V23.8854Z"/></g></g><defs><linearGradient id="paint0_linear_94_18825" x1="9.18955" x2="21.1355" y1="13.6378" y2="34.3298" gradientUnits="userSpaceOnUse"><stop stop-color="#18884F"/><stop offset="0.5" stop-color="#117E43"/><stop offset="1" stop-color="#0B6631"/></linearGradient></defs></svg>

<svg xmlns="http://www.w3.org/2000/svg" fill="none" aria-hidden="true" viewBox="0 0 48 48"><path fill="#185C37" d="M40.452 39.707H19.987a1.54 1.54 0 0 1-1.547-1.548v-8.942l7.853-3.898 9.803 3.898h4.356c.86 0 1.548.688 1.548 1.547v7.395c0 .86-.688 1.548-1.548 1.548Z"/><path fill="#33C481" d="m30.191 18.783-9.172 3.268-10.433-3.268V9.841c0-.86.688-1.548 1.548-1.548H28.7c.86 0 1.547.688 1.547 1.548l-.057 8.942Z"/><path fill="#21A366" d="M10.586 18.783h23.962c.86 0 1.547.688 1.547 1.548v8.943h-23.96c-.86 0-1.548-.688-1.548-1.548v-8.943Z"/><path fill="#000" d="M18.44 35.12h4.987c.745 0 1.375-.515 1.49-1.26V16.376c0-.86-.688-1.548-1.49-1.548H10.586v12.84c0 .86.688 1.548 1.548 1.548h6.305v5.905Z" opacity=".1"/><path fill="#000" d="M23.427 34.49a2.177 2.177 0 0 0 2.178-2.178V16.376a2.177 2.177 0 0 0-2.178-2.179H10.586v13.53c0 .859.688 1.547 1.548 1.547h6.305v5.216h4.988Z" opacity=".2"/><path fill="#000" d="M23.427 33.802c.86 0 1.547-.688 1.547-1.49V16.376c0-.86-.687-1.548-1.49-1.548H10.586v12.84c0 .86.688 1.548 1.548 1.548h6.305v4.586h4.988Z" opacity=".2"/><path fill="#000" d="M22.796 33.802c.86 0 1.548-.688 1.548-1.49V16.376c0-.86-.688-1.548-1.49-1.548H10.585v12.84c0 .86.688 1.548 1.548 1.548h6.305v4.586h4.357Z" opacity=".1"/><path fill="url(#a)" d="M7.548 14.828h15.248c.86 0 1.548.688 1.548 1.548v15.248c0 .86-.688 1.548-1.548 1.548H7.548c-.86 0-1.548-.688-1.548-1.548V16.376c0-.86.688-1.548 1.548-1.548Z"/><path fill="#fff" d="M15.459 18.898c.975-.057 1.95.23 2.694.803.63.63.975 1.49.918 2.35 0 .63-.173 1.204-.46 1.777a3.778 3.778 0 0 1-1.318 1.204c-.63.287-1.318.459-2.006.401h-1.892v3.612h-1.949V18.898h4.013Zm-2.006 4.987h1.662c.516.058 1.032-.114 1.49-.458.345-.344.516-.803.516-1.319 0-1.146-.63-1.662-1.891-1.662h-1.72l-.057 3.44Z"/><defs><linearGradient id="a" x1="9.19" x2="21.136" y1="13.638" y2="34.33" gradientUnits="userSpaceOnUse"><stop stop-color="#18884F"/><stop offset=".5" stop-color="#117E43"/><stop offset="1" stop-color="#0B6631"/></linearGradient></defs></svg>
